X: 91
T: O intemerata
N: Derived from Mar2080-O_intemerata.krn
C: Johannes Martini
%%abc-version 2.0
%%abcx-abcm2ps-target-version 5.9.1 (29 Sep 2008)
%%abc-creator hum2abc beta
%%abcx-conversion-date 2019/02/17 07:19:42
%%abc-edited-by Jesse Rodin
%%abc-edited-by Chris Gage 09-23-2014
%%abcx-initial-encoding-date 2014/10/05/
%%humdrum-veritas 3159577580
%%humdrum-veritas-data 1950058000
%%linebreak <none>
%%barnumbers 0
L: 1/4
M: 2/1
Q: 1/2=120
V: 1 clef=treble
V: 2 clef=treble-8
V: 3 clef=bass
K: C
[V:1] c8 | 
[V:2] c8 | 
[V:3] C8- | 
[V:1] c4c4 | 
[V:2] e4f4 | 
[V:3] C4A,4 | 
[V:1] B8 | 
[V:2] g8 | 
[V:3] G,4E,2G,2 | 
[V:1] A8 | 
[V:2] z4f4 | 
[V:3] D,4D,4 | 
[V:1] G8 | 
[V:2] g4e4- | 
[V:3] E,8 | 
[V:1] c6B2 | 
[V:2] e4c4 | 
[V:3] C,4F,4- | 
[V:1] A4G4 | 
[V:2] d4e4 | 
[V:3] F,4E,4 | 
[V:1] A4F4 | 
[V:2] f8 | 
[V:3] D,8 | 
[V:1] G6FE | 
[V:2] e6dc | 
[V:3] C,8 | 
[V:1] D8 | 
[V:2] B8 | 
[V:3] G,8 | 
[V:1] C8 | 
[V:2] c6BA | 
[V:3] z4C,4 | 
[V:1] z4G4 | 
[V:2] G8 | 
[V:3] E,4E,4 | 
[V:1] A4B4 | 
[V:2] z4g4 | 
[V:3] F,4G,4 | 
[V:1] c4d4- | 
[V:2] e4d4 | 
[V:3] A,4B,4 | 
[V:1] d2c2B4 | 
[V:2] g8 | 
[V:3] G,6F,E, | 
[V:1] A4G4- | 
[V:2] f4e4 | 
[V:3] D,4E,4- | 
[V:1] G2ABc4- | 
[V:2] c8 | 
[V:3] E,4C,4 | 
[V:1] c4B4 | 
[V:2] d8 | 
[V:3] G,8 | 
[V:1] c6G2 | 
[V:2] c8 | 
[V:3] A,4C4 | 
[V:1] A4B4 | 
[V:2] z4d4 | 
[V:3] F,4G,4 | 
[V:1] c4d4 | 
[V:2] e4f4 | 
[V:3] C6B,A, | 
[V:1] B8- | 
[V:2] g6fe | 
[V:3] G,8- | 
[V:1] !fermata!B8 | 
[V:2] !fermata!d8 | 
[V:3] !fermata!G,8 | 
[V:1] c6BA | 
[V:2] z8 | 
[V:3] C,4F,4 | 
[V:1] G4c4 | 
[V:2] e8 | 
[V:3] E,4C,4 | 
[V:1] B4c4 | 
[V:2] d4e4 | 
[V:3] G,4E,4 | 
[V:1] d2c2B2A2 | 
[V:2] f8 | 
[V:3] D,8 | 
[V:1] G4A4 | 
[V:2] e4c4 | 
[V:3] C,8 | 
[V:1] B4B4 | 
[V:2] d8 | 
[V:3] z4G,4 | 
[V:1] c6B2 | 
[V:2] c8 | 
[V:3] A,4F,4- | 
[V:1] A2G2G4- | 
[V:2] d4B4 | 
[V:3] F,4G,4 | 
[V:1] G4^F4 | 
[V:2] A8 | 
[V:3] D,8 | 
[V:1] [M:3/1]G8G4 | 
[V:2] [M:3/1]G8G4 | 
[V:3] [M:3/1]E,6D,2E,4 | 
[V:1] A6B2c4 | 
[V:2] c8c4 | 
[V:3] F,6G,2A,4 | 
[V:1] B6c2d4 | 
[V:2] G8G4 | 
[V:3] E,8G,4 | 
[V:1] e6d2c4 | 
[V:2] c8c4 | 
[V:3] C,8C,4 | 
[V:1] B6c2d4 | 
[V:2] d8f4 | 
[V:3] G,8F,4 | 
[V:1] c8B4 | 
[V:2] e4d8 | 
[V:3] C,4G,8 | 
[V:1] c12 | 
[V:2] c8c4 | 
[V:3] C,6D,2E,4 | 
[V:1] z12 | 
[V:2] d6e2f4 | 
[V:3] F,6E,2D,4 | 
[V:1] c6d2e4 | 
[V:2] e8c4 | 
[V:3] C,8C,4 | 
[V:1] f8f4 | 
[V:2] d8d4 | 
[V:3] _B,,8B,,4 | 
[V:1] e6d2c4 | 
[V:2] c6B2A4 | 
[V:3] C,4z4F,4 | 
[V:1] B8A4 | 
[V:2] G4g4f4 | 
[V:3] G,8D,4 | 
[V:1] G8F4 | 
[V:2] g4c4d4 | 
[V:3] E,8D,4 | 
[V:1] E4C4D4 | 
[V:2] c8B4 | 
[V:3] A,8G,4 | 
[V:1] E8F4 | 
[V:2] c6B2A4 | 
[V:3] C,8D,4 | 
[V:1] G8A4 | 
[V:2] G4c8 | 
[V:3] E,8C,4 | 
[V:1] B4G8 | 
[V:2] d4e4c4- | 
[V:3] G,8E,4 | 
[V:1] c4A8 | 
[V:2] c4f4d4- | 
[V:3] C,4D,6E,2 | 
[V:1] d4B4c4 | 
[V:2] d4g4e4 | 
[V:3] F,2D,2E,4C,2C2 | 
[V:1] d6c2B2A2 | 
[V:2] f4g6f2 | 
[V:3] A,2G,2G,6D,2 | 
[V:1] G4e6d2 | 
[V:2] e2d2c8 | 
[V:3] G,4A,6B,2 | 
[V:1] c8B4 | 
[V:2] e4d8 | 
[V:3] C4G,8 | 
[V:1] c12 |]  
[V:2] c12 |]  
[V:3] C,12 |]  



